X:104
T:Gavotte in G Major
C:Handel, G.F.
M:2/2
L:1/8
Q:1/2=88
K:G
|:de|g4 gfed|c4 cBAG|A4 ABCD|E4 E2 de|
g4 gfed|c4 cBAG|ABCD EFGA|G4 G2:|

